src/catppuccin-frappe-dark-cursors/draft_24.svg

<?xml version="1.0" encoding="UTF-8" standalone="no"?>
<svg
   id="svg12"
   width="24"
   height="24"
   version="1"
   sodipodi:docname="draft_24.svg"
   inkscape:version="1.1.2 (0a00cf5339, 2022-02-04)"
   xmlns:inkscape="http://www.inkscape.org/namespaces/inkscape"
   xmlns:sodipodi="http://sodipodi.sourceforge.net/DTD/sodipodi-0.dtd"
   xmlns="http://www.w3.org/2000/svg"
   xmlns:svg="http://www.w3.org/2000/svg">
  <sodipodi:namedview
     id="namedview11"
     pagecolor="#ffffff"
     bordercolor="#666666"
     borderopacity="1.0"
     inkscape:pageshadow="2"
     inkscape:pageopacity="0.0"
     inkscape:pagecheckerboard="0"
     showgrid="true"
     inkscape:zoom="30.14"
     inkscape:cx="7.3158593"
     inkscape:cy="10.683477"
     inkscape:window-width="1896"
     inkscape:window-height="1020"
     inkscape:window-x="9"
     inkscape:window-y="45"
     inkscape:window-maximized="1"
     inkscape:current-layer="svg12">
    <inkscape:grid
       type="xygrid"
       id="grid1279" />
  </sodipodi:namedview>
  <defs
     id="defs16">
    <filter
       id="filter848"
       style="color-interpolation-filters:sRGB"
       width="1.109"
       height="1.133"
       x="-0.059999999"
       y="-0.07">
      <feGaussianBlur
         id="feGaussianBlur850"
         stdDeviation=".5" />
    </filter>
    <filter
       id="filter822"
       style="color-interpolation-filters:sRGB"
       width="1.1309091"
       height="1.1599994"
       x="-0.065454543"
       y="-0.079999715">
      <feGaussianBlur
         id="feGaussianBlur824"
         stdDeviation=".6" />
    </filter>
    <filter
       inkscape:collect="always"
       style="color-interpolation-filters:sRGB"
       id="filter2071"
       x="-0.021076214"
       y="-0.02660483"
       width="1.0421524"
       height="1.0532097">
      <feGaussianBlur
         inkscape:collect="always"
         stdDeviation="0.155281"
         id="feGaussianBlur2073" />
    </filter>
  </defs>
  <path
     style="color:#000000;opacity:0.1;fill:#000000;fill-opacity:1;stroke-linecap:round;stroke-linejoin:round;-inkscape-stroke:none;filter:url(#filter2071)"
     d="m 17.564453,5.51523 c -0.317741,-5.139e-4 -0.668203,0.063904 -1.009766,0.2539062 -0.81678,0.4543214 -1.285331,1.2412877 -1.345703,2.0488282 -0.04253,0.5688492 0.09417,0.9629315 0.189454,1.2988281 -0.207594,-0.1814249 -0.372063,-0.313718 -0.683594,-0.6171875 -0.492199,-0.4794618 -1.116309,-1.0741305 -1.97461,-1.5 -0.876579,-0.4349387 -1.991691,-0.6347558 -3.1914059,-0.3613281 -0.019664,0.00397 -0.039204,0.00853 -0.058594,0.013672 C 8.3532976,6.9599936 7.7199109,7.9064507 7.3203125,8.7749956 7.0751363,9.307897 6.9805969,9.9114814 6.8515625,10.499604 H 5 4.5 c -0.5522619,5.5e-5 -0.9999448,0.447738 -1,1 v 1 c 5.52e-5,0.552262 0.4477381,0.999945 1,1 H 5 6.5 c -0.051782,1.513275 0.044494,3.032209 0.8007812,4.255859 0.0013,0.0013 0.0026,0.0026 0.00391,0.0039 l 0.00977,0.01563 0.00977,0.01563 c 0.012329,0.01998 0.025358,0.03953 0.039063,0.05859 0.6324468,0.871217 1.5699769,1.325985 2.4707032,1.53125 0.8980036,0.204645 1.8322016,0.187717 2.6972656,-0.04297 0.861851,-0.229824 1.777229,-0.70881 2.296875,-1.640625 0.552201,-0.990214 0.396554,-2.22997 -0.265638,-3.257811 -0.677839,-1.052154 -1.834359,-1.836856 -3.152344,-2.558594 -0.540641,-0.296059 -1.108319,-0.471544 -1.6699216,-0.675781 0.099305,-0.427881 0.1869876,-0.919955 0.3046876,-1.17578 0.204149,-0.4437269 0.487546,-0.5296464 0.228515,-0.4570314 0.509855,-0.1040468 0.780151,-0.057795 1.132813,0.1171875 0.355114,0.1761997 0.774077,0.5296739 1.216797,0.9609369 0.437919,0.426586 0.917915,0.965639 1.617187,1.386718 0.775624,0.467053 1.874148,0.648313 2.886719,0.138672 0.833046,-0.419283 1.344846,-1.187516 1.419922,-2.015624 0.03981,-0.4390908 -0.06475,-0.6926502 -0.138672,-0.9980466 0.0026,0.00233 0.04102,0.033203 0.04102,0.033203 l 0.365234,0.3417969 c 0.403355,0.3777304 1.036609,0.3567386 1.414063,-0.046875 l 0.683589,-0.7304687 c 0.37773,-0.4033547 0.356738,-1.0366087 -0.04687,-1.4140625 L 20.503906,7.0074175 20.5,7.0035112 C 20.4963,7.0000012 20.053817,6.5792976 19.462891,6.1910112 19.170324,5.9987715 18.8157,5.7912095 18.382812,5.6499956 18.167841,5.5798691 17.882194,5.5157439 17.564453,5.51523 Z m -7.9160155,8.89453 c 0.090791,0.03703 0.2334536,0.054 0.3203125,0.101563 0.524244,0.28708 1.023186,0.626716 1.40625,0.929687 0.383064,0.302971 0.669178,0.626004 0.666016,0.621094 0.09685,0.150323 0.09196,0.167958 0.103515,0.203125 -0.0024,-0.02207 -0.09159,0.09317 -0.386718,0.171875 -0.349586,0.09322 -0.868346,0.107844 -1.25586,0.01953 C 10.147979,16.375968 9.9368587,16.214396 9.8457031,16.110932 9.7581675,15.947287 9.7254759,15.06942 9.6484375,14.40976 Z"
     id="path2033"
     sodipodi:nodetypes="scscssccscccccccccccccscccscscsssssccccccccsssccscccccc" />
  <path
     style="color:#000000;fill:#C6D0F5;stroke-linecap:round;stroke-linejoin:round;-inkscape-stroke:none;fill-opacity:1"
     d="m 17.064453,5.015625 c -0.317741,-5.139e-4 -0.668203,0.063904 -1.009766,0.2539062 -0.81678,0.4543214 -1.285331,1.2412877 -1.345703,2.0488282 -0.04253,0.5688492 0.09417,0.9629315 0.189454,1.2988281 C 14.690844,8.4357626 14.526375,8.3034695 14.214844,8 13.722645,7.5205382 13.098535,6.9258695 12.240234,6.5 11.363655,6.0650613 10.248543,5.8652442 9.0488281,6.1386719 c -0.019664,0.00397 -0.039204,0.00853 -0.058594,0.013672 C 7.8532976,6.4603886 7.2199109,7.4068457 6.8203125,8.2753906 6.5751363,8.808292 6.4805969,9.4118764 6.3515625,10 H 4.5 4 c -0.5522619,5.5e-5 -0.9999448,0.447738 -1,1 v 1 c 5.52e-5,0.552262 0.4477381,0.999945 1,1 H 4.5 6 c -0.051782,1.513275 0.044494,3.032209 0.8007812,4.255859 0.0013,0.0013 0.0026,0.0026 0.00391,0.0039 l 0.00977,0.01563 0.00977,0.01563 c 0.012329,0.01998 0.025358,0.03953 0.039063,0.05859 0.6324468,0.871217 1.5699769,1.325985 2.4707032,1.53125 0.8980036,0.204645 1.8322016,0.187717 2.6972656,-0.04297 0.861851,-0.229824 1.777229,-0.70881 2.296875,-1.640625 C 14.880339,16.20705 14.724692,14.967294 14.0625,13.939453 13.384661,12.887299 12.228141,12.102597 10.910156,11.380859 10.369515,11.0848 9.8018366,10.909315 9.2402344,10.705078 9.3395395,10.277197 9.427222,9.7851228 9.5449219,9.5292969 9.7490708,9.0855701 10.032468,8.9996506 9.7734375,9.0722656 10.283292,8.9682188 10.553588,9.0144702 10.90625,9.1894531 c 0.355114,0.1761997 0.774077,0.5296747 1.216797,0.9609379 0.437919,0.426586 0.917915,0.965639 1.617187,1.386718 0.775624,0.467053 1.874148,0.648313 2.886719,0.138672 0.833046,-0.419283 1.344846,-1.187516 1.419922,-2.0156247 0.03981,-0.4390911 -0.06475,-0.6926505 -0.138672,-0.9980469 0.0026,0.00233 0.04102,0.033203 0.04102,0.033203 l 0.365234,0.3417969 c 0.403355,0.3777304 1.036609,0.3567386 1.414063,-0.046875 l 0.683589,-0.7304687 c 0.37773,-0.4033547 0.356738,-1.0366087 -0.04687,-1.4140625 L 20.003906,6.5078125 20,6.5039062 C 19.9963,6.5003962 19.553817,6.0796926 18.962891,5.6914062 18.670324,5.4991665 18.3157,5.2916045 17.882812,5.1503906 17.667841,5.0802641 17.382194,5.0161389 17.064453,5.015625 Z m -7.9160155,8.894531 c 0.090791,0.03703 0.2334536,0.054 0.3203125,0.101563 0.5242442,0.28708 1.023186,0.626716 1.40625,0.929687 0.383064,0.302971 0.669178,0.626004 0.666016,0.621094 0.09685,0.150323 0.09196,0.167958 0.103515,0.203125 -0.0024,-0.02207 -0.09159,0.09317 -0.386718,0.171875 -0.349586,0.09322 -0.868346,0.107844 -1.25586,0.01953 C 9.6479787,15.876364 9.4368587,15.714792 9.3457031,15.611328 9.2581675,15.447683 9.2254759,14.569816 9.1484375,13.910156 Z"
     id="path1798"
     sodipodi:nodetypes="scscssccscccccccccccccscccscscsssssccccccccsssccscccccc" />
  <path
     id="path8"
     style="fill:none;stroke:#232627;stroke-width:1;stroke-linecap:square;stroke-miterlimit:4;stroke-dasharray:none;stroke-opacity:1"
     d="m 4.5,11.5 h 2.0284545 c 2.1644459,0.04718 5.5064635,2.061059 6.2734755,3.25164 1.789553,2.777713 -3.3009879,3.678458 -4.7250818,1.716719 C 6.7460307,14.315134 7.4657944,8.119489 9.3832184,7.6 12.85275,6.8092571 13.817388,11.412075 15.953387,10.337 17.603275,9.5065872 15.169854,7.477814 16.783946,6.58 17.475744,6.1951715 18.974998,7.6 18.974998,7.6"
     sodipodi:nodetypes="cccccscc" />
  <path
     style="fill:#292C3C;stroke-width:0.0331785"
     d="M 9.9779814,17.965461 C 9.0411168,17.817466 8.3808228,17.503107 7.8798938,16.966585 7.563581,16.627796 7.348934,16.166818 7.1709697,15.444091 6.9666919,14.614504 6.8732145,13.510618 6.9279847,12.574652 6.9506177,12.187879 6.9489377,12.037179 6.9217947,12.01942 6.9013047,12.00601 6.2388031,11.99481 5.4495695,11.99454 l -1.4349702,-5.08e-4 v -0.482304 -0.482303 l 1.5344998,0.0038 1.5344997,0.0038 0.042348,-0.253884 C 7.1921555,10.38614 7.4138985,9.5511141 7.5494479,9.1882826 7.8167113,8.4728869 8.144923,7.9296175 8.528423,7.5678429 8.9372405,7.1821851 9.3640839,7.0432573 10.152621,7.0392034 c 0.796786,-0.0041 1.42248,0.1978385 2.17496,0.7019417 0.383916,0.2571941 0.663503,0.4983596 1.3776,1.1882884 0.627976,0.6067221 0.890901,0.8250741 1.164297,0.9669172 0.147356,0.076451 0.215314,0.090378 0.441014,0.090378 0.30103,0 0.522778,-0.085921 0.668404,-0.2589877 0.115926,-0.1377701 0.108993,-0.4557944 -0.02075,-0.9520276 -0.203457,-0.7781452 -0.238894,-0.9901928 -0.223178,-1.3354281 0.01319,-0.2897985 0.02724,-0.348533 0.134927,-0.5640345 0.208641,-0.4175421 0.594716,-0.7383956 0.989233,-0.8221179 0.606433,-0.1286939 1.464296,0.3152905 2.615645,1.3537205 l 0.181472,0.1636733 -0.32614,0.351704 -0.32614,0.3517039 L 18.70072,8.0012953 C 18.136428,7.4920888 17.598364,7.134915 17.242368,7.0332237 c -0.192783,-0.055069 -0.193031,-0.055048 -0.318305,0.027855 -0.281626,0.1863714 -0.298421,0.4359232 -0.08511,1.2646687 0.184268,0.7159168 0.222313,0.9916544 0.179099,1.298024 -0.08688,0.6159296 -0.543951,1.0921826 -1.241632,1.2937336 -0.253958,0.07336 -0.677068,0.0729 -0.931364,-10e-4 C 14.331015,10.767042 13.939562,10.486247 13.044894,9.6251971 12.157143,8.7708038 11.864135,8.5374543 11.363386,8.2860528 10.864591,8.035633 10.393675,7.9505 9.8569967,8.0137257 9.4565664,8.0609 9.3159326,8.123416 9.1054287,8.3478201 8.7966977,8.6769369 8.5448308,9.1851269 8.3155451,9.9415614 8.1949429,10.33944 8.0093962,11.222179 8.0399453,11.252729 c 0.00949,0.0095 0.1863911,0.07406 0.3931045,0.143475 1.1815454,0.396781 2.4783912,1.084964 3.5185702,1.867161 0.718824,0.540543 1.145764,0.99814 1.415978,1.517656 0.349059,0.671104 0.380947,1.277078 0.09777,1.857996 -0.126492,0.259491 -0.543335,0.688699 -0.83511,0.859882 -0.259325,0.152144 -0.735827,0.328331 -1.100733,0.406995 -0.342402,0.07381 -1.242585,0.108372 -1.5515476,0.05957 z m 1.4686016,-1.027634 c 0.360834,-0.08858 0.773743,-0.289186 0.953792,-0.463374 0.353215,-0.34172 0.381816,-0.693029 0.102752,-1.262111 -0.115407,-0.235344 -0.193687,-0.337215 -0.473,-0.615543 C 11.19671,13.766318 9.6539263,12.846491 8.2825876,12.362468 8.1220667,12.305812 7.9695255,12.259456 7.9436072,12.259456 c -0.039433,0 -0.04703,0.131307 -0.046549,0.804579 7.631e-4,1.070182 0.066543,1.679407 0.2516579,2.330789 0.2333036,0.82095 0.5495186,1.181853 1.2619064,1.440242 0.1435007,0.05205 0.3728879,0.112693 0.5097492,0.134765 0.1368613,0.02207 0.2712343,0.04557 0.2986063,0.05222 0.146956,0.03569 0.968877,-0.0207 1.227605,-0.08422 z"
     id="path9705" />
</svg>

<svg xmlns="http://www.w3.org/2000/svg" width="24" height="24" version="1">
    <defs>
        <filter id="a" width="1.042" height="1.053" x="-.021" y="-.027" style="color-interpolation-filters:sRGB">
            <feGaussianBlur stdDeviation=".155"/>
        </filter>
    </defs>
    <path d="M17.564 5.515c-.317 0-.668.064-1.01.254-.816.454-1.285 1.241-1.345 2.049-.043.569.094.963.19 1.299-.208-.182-.373-.314-.684-.617-.492-.48-1.116-1.075-1.975-1.5a4.77 4.77 0 0 0-3.25-.348c-1.137.308-1.77 1.254-2.17 2.123-.245.533-.34 1.136-.468 1.725H4.5a1 1 0 0 0-1 1v1a1 1 0 0 0 1 1h2c-.052 1.513.044 3.032.8 4.255l.005.004.01.016.01.016q.018.03.038.058c.633.871 1.57 1.326 2.471 1.531a5.65 5.65 0 0 0 2.697-.043c.862-.23 1.777-.708 2.297-1.64.552-.99.397-2.23-.266-3.258-.677-1.052-1.834-1.837-3.152-2.559-.54-.296-1.108-.471-1.67-.675.1-.428.187-.92.305-1.176.204-.444.487-.53.228-.457.51-.104.78-.058 1.133.117.355.176.774.53 1.217.961.438.427.918.966 1.617 1.387.776.467 1.874.648 2.887.138.833-.419 1.345-1.187 1.42-2.015.04-.44-.065-.693-.139-.998l.041.033.365.342a1 1 0 0 0 1.415-.047l.683-.73a1 1 0 0 0-.047-1.415l-.361-.338-.004-.003a8 8 0 0 0-1.037-.813 4.5 4.5 0 0 0-1.08-.541 2.7 2.7 0 0 0-.819-.135M9.648 14.41c.091.037.234.054.32.101a10.4 10.4 0 0 1 1.407.93c.383.303.67.626.666.621.097.15.092.168.104.203-.003-.022-.092.093-.387.172a2.9 2.9 0 0 1-1.256.02c-.354-.081-.565-.243-.656-.346-.088-.164-.12-1.042-.198-1.701" style="color:#000;opacity:.1;fill:#000;fill-opacity:1;stroke-linecap:round;stroke-linejoin:round;-inkscape-stroke:none;filter:url(#a)"/>
    <path d="M17.064 5.016c-.317 0-.668.064-1.01.254-.816.454-1.285 1.24-1.345 2.048-.043.57.094.963.19 1.3-.208-.182-.373-.315-.684-.618-.492-.48-1.116-1.074-1.975-1.5a4.77 4.77 0 0 0-3.25-.348c-1.137.308-1.77 1.255-2.17 2.123-.245.533-.34 1.137-.468 1.725H4a1 1 0 0 0-1 1v1a1 1 0 0 0 1 1h2c-.052 1.513.044 3.032.8 4.256l.005.004.01.015.01.016.038.059c.633.87 1.57 1.326 2.471 1.53a5.65 5.65 0 0 0 2.697-.042c.862-.23 1.777-.709 2.297-1.64.552-.991.397-2.23-.265-3.259-.678-1.052-1.835-1.836-3.153-2.558-.54-.296-1.108-.472-1.67-.676.1-.428.187-.92.305-1.176.204-.443.487-.53.228-.457.51-.104.78-.058 1.133.117.355.177.774.53 1.217.961.438.427.918.966 1.617 1.387.776.467 1.874.648 2.887.139.833-.42 1.345-1.188 1.42-2.016.04-.439-.065-.692-.139-.998l.041.033.365.342a1 1 0 0 0 1.415-.047l.683-.73a1 1 0 0 0-.047-1.414l-.361-.338L20 6.504a8 8 0 0 0-1.037-.813 4.5 4.5 0 0 0-1.08-.54 2.7 2.7 0 0 0-.819-.135M9.148 13.91c.091.037.234.054.32.102a10.4 10.4 0 0 1 1.407.93c.383.302.67.625.666.62.097.15.092.168.104.204-.003-.022-.092.093-.387.172a2.9 2.9 0 0 1-1.256.019c-.354-.08-.565-.242-.656-.346-.088-.163-.12-1.041-.198-1.7" style="color:#000;fill:#c6d0f5;stroke-linecap:round;stroke-linejoin:round;-inkscape-stroke:none;fill-opacity:1"/>
    <path d="M4.5 11.5h2.028c2.165.047 5.507 2.061 6.274 3.252 1.79 2.777-3.301 3.678-4.725 1.716C6.746 14.315 7.466 8.12 9.383 7.6c3.47-.79 4.434 3.812 6.57 2.737 1.65-.83-.783-2.86.83-3.757.693-.385 2.192 1.02 2.192 1.02" style="fill:none;stroke:#232627;stroke-width:1;stroke-linecap:square;stroke-miterlimit:4;stroke-dasharray:none;stroke-opacity:1"/>
    <path d="M9.978 17.965c-.937-.148-1.597-.462-2.098-.998-.316-.34-.531-.8-.709-1.523-.204-.83-.298-1.933-.243-2.87.023-.386.02-.537-.006-.555-.02-.013-.683-.024-1.472-.024l-1.435-.001v-.965l1.534.004 1.535.004.042-.254a12 12 0 0 1 .423-1.595c.268-.715.596-1.258.98-1.62.408-.386.835-.525 1.624-.529.796-.004 1.422.198 2.175.702.383.257.663.499 1.377 1.188.628.607.891.826 1.164.967.148.077.216.09.441.09q.451 0 .669-.258.174-.207-.02-.952c-.204-.778-.24-.99-.224-1.336.013-.29.027-.348.135-.564.209-.417.595-.738.99-.822.606-.129 1.463.315 2.615 1.354l.181.164-.326.351-.326.352L18.701 8c-.565-.509-1.103-.866-1.459-.968-.192-.055-.193-.055-.318.028-.282.186-.298.436-.085 1.265.184.716.222.991.18 1.298-.088.616-.545 1.092-1.243 1.294a2 2 0 0 1-.93-.001c-.515-.15-.906-.43-1.801-1.292-.888-.854-1.18-1.088-1.682-1.339a2.54 2.54 0 0 0-1.506-.272c-.4.047-.541.11-.752.334-.308.329-.56.837-.79 1.594-.12.397-.306 1.28-.275 1.31.01.01.186.075.393.144 1.182.397 2.478 1.085 3.519 1.867.718.54 1.145.999 1.416 1.518.349.671.38 1.277.097 1.858-.126.26-.543.689-.835.86-.26.152-.736.328-1.1.407-.343.074-1.243.108-1.552.06m1.469-1.027c.36-.089.773-.29.953-.464.354-.341.382-.693.103-1.262-.115-.235-.194-.337-.473-.615-.833-.83-2.376-1.75-3.747-2.235a2.5 2.5 0 0 0-.34-.103c-.039 0-.046.132-.046.805 0 1.07.067 1.68.252 2.33.233.822.55 1.183 1.262 1.441a3.4 3.4 0 0 0 .51.135c.136.022.27.045.298.052.147.036.969-.02 1.228-.084" style="fill:#292c3c;stroke-width:.0331785"/>
</svg>
